src/assets/duotone/RecordCircle.svg

<svg width="24" height="24" viewBox="0 0 24 24"  xmlns="http://www.w3.org/2000/svg">
<path opacity="0.4" d="M11.9702 22C17.4931 22 21.9702 17.5228 21.9702 12C21.9702 6.47715 17.4931 2 11.9702 2C6.44737 2 1.97021 6.47715 1.97021 12C1.97021 17.5228 6.44737 22 11.9702 22Z" />
<path d="M12 16.23C14.3362 16.23 16.23 14.3362 16.23 12C16.23 9.66386 14.3362 7.77002 12 7.77002C9.66386 7.77002 7.77002 9.66386 7.77002 12C7.77002 14.3362 9.66386 16.23 12 16.23Z" />
</svg>

<?xml version="1.0" encoding="UTF-8"?>
<svg width="24" height="24" viewBox="0 0 24 24" xmlns="http://www.w3.org/2000/svg">
 <path d="m11.97 22c5.5229 0 10-4.4772 10-10 0-5.5228-4.4771-10-10-10-5.5228 0-10 4.4772-10 10 0 5.5228 4.4772 10 10 10z" opacity=".4"/>
 <path d="m12 16.23c2.3362 0 4.23-1.8938 4.23-4.23 0-2.3361-1.8938-4.23-4.23-4.23-2.3361 0-4.23 1.8938-4.23 4.23 0 2.3362 1.8938 4.23 4.23 4.23z"/>
</svg>
